src/media/summer.svg

<svg fill="none" height="64" viewBox="0 0 64 64" width="64" xmlns="http://www.w3.org/2000/svg" xmlns:xlink="http://www.w3.org/1999/xlink"><clipPath id="a"><path d="m0 0h64v64h-64z"/></clipPath><g clip-path="url(#a)"><path d="m32 43c6.0751 0 11-4.9249 11-11s-4.9249-11-11-11-11 4.9249-11 11 4.9249 11 11 11zm15.8058-13.5h13.6993c1.3779 0 2.4949 1.1097 2.4949 2.5 0 1.3807-1.1131 2.5-2.4949 2.5h-13.6993c-.4006 2.5532-1.405 4.906-2.8625 6.9078l9.6876 9.6876c.9744.9744.9796 2.5489-.0035 3.532-.9763.9763-2.5549.9807-3.532.0035l-9.6876-9.6876c-2.0018 1.4575-4.3546 2.4619-6.9078 2.8625v13.6993c0 1.3779-1.1097 2.4949-2.5 2.4949-1.3807 0-2.5-1.1131-2.5-2.4949v-13.6993c-2.5532-.4006-4.906-1.405-6.9078-2.8625l-9.6876 9.6876c-.9744.9744-2.5489.9796-3.53202-.0035-.97631-.9763-.98063-2.5549-.00351-3.532l9.68763-9.6876c-1.4575-2.0018-2.4619-4.3546-2.8625-6.9078h-13.69935c-1.37787 0-2.49485-1.1097-2.49485-2.5 0-1.3807 1.11309-2.5 2.49485-2.5h13.69935c.4006-2.5532 1.405-4.906 2.8625-6.9078l-9.68763-9.6876c-.97437-.9744-.9796-2.5489.00351-3.53202.97632-.97631 2.55492-.98063 3.53202-.00351l9.6876 9.68763c2.0018-1.4575 4.3546-2.4619 6.9078-2.8625v-13.69935c0-1.37787 1.1097-2.49485 2.5-2.49485 1.3807 0 2.5 1.11309 2.5 2.49485v13.69935c2.5532.4006 4.906 1.405 6.9078 2.8625l9.6876-9.68763c.9744-.97437 2.5489-.9796 3.532.00351.9763.97632.9807 2.55492.0035 3.53202l-9.6876 9.6876c1.4575 2.0018 2.4619 4.3546 2.8625 6.9078z" fill="#fff"/></g></svg>

<svg width="64" height="64" viewBox="0 0 64 64" fill="none" xmlns="http://www.w3.org/2000/svg">
<g clip-path="url(#clip0_1_12)">
<path d="M32 43C38.0751 43 43 38.0751 43 32C43 25.9249 38.0751 21 32 21C25.9249 21 21 25.9249 21 32C21 38.0751 25.9249 43 32 43ZM47.8058 29.5H61.5051C62.883 29.5 64 30.6097 64 32C64 33.3807 62.8869 34.5 61.5051 34.5H47.8058C47.4052 37.0532 46.4008 39.406 44.9433 41.4078L54.6309 51.0954C55.6053 52.0698 55.6105 53.6443 54.6274 54.6274C53.6511 55.6037 52.0725 55.6081 51.0954 54.6309L41.4078 44.9433C39.406 46.4008 37.0532 47.4052 34.5 47.8058V61.5051C34.5 62.883 33.3903 64 32 64C30.6193 64 29.5 62.8869 29.5 61.5051V47.8058C26.9468 47.4052 24.594 46.4008 22.5922 44.9433L12.9046 54.6309C11.9302 55.6053 10.3557 55.6105 9.37258 54.6274C8.39627 53.6511 8.39195 52.0725 9.36907 51.0954L19.0567 41.4078C17.5992 39.406 16.5948 37.0532 16.1942 34.5H2.49485C1.11698 34.5 0 33.3903 0 32C0 30.6193 1.11309 29.5 2.49485 29.5H16.1942C16.5948 26.9468 17.5992 24.594 19.0567 22.5922L9.36907 12.9046C8.3947 11.9302 8.38947 10.3557 9.37258 9.37258C10.3489 8.39627 11.9275 8.39195 12.9046 9.36907L22.5922 19.0567C24.594 17.5992 26.9468 16.5948 29.5 16.1942V2.49485C29.5 1.11698 30.6097 0 32 0C33.3807 0 34.5 1.11309 34.5 2.49485V16.1942C37.0532 16.5948 39.406 17.5992 41.4078 19.0567L51.0954 9.36907C52.0698 8.3947 53.6443 8.38947 54.6274 9.37258C55.6037 10.3489 55.6081 11.9275 54.6309 12.9046L44.9433 22.5922C46.4008 24.594 47.4052 26.9468 47.8058 29.5Z" fill="white"/>
</g>
<defs>
<clipPath id="clip0_1_12">
<rect width="64" height="64" fill="white"/>
</clipPath>
</defs>
</svg>
